;FLAVOR:Marlin
;TIME:7159
;Filament used: 13.4019m
;Layer height: 0.32
;MINX:150.198
;MINY:177.399
;MINZ:0.384
;MAXX:249.801
;MAXY:222.6
;MAXZ:125.374
;POSTPROCESSED
;Generated with Cura_SteamEngine 4.2.1
M104 S200
M105
M109 S200
M82 ;absolute extrusion mode
G90
M201 X500.00 Y500.00 Z100.00 E5000.00 ;Setup machine max acceleration
M203 X500.00 Y500.00 Z10.00 E50.00 ;Setup machine max feedrate
M204 P500.00 R1000.00 T500.00 ;Setup Print/Retract/Travel acceleration
M205 X8.00 Y8.00 Z0.40 E5.00 ;Setup Jerk
M220 S100 ;Reset Feedrate
M221 S100 ;Reset Flowrate

G28 ;Home

G92 E0 ;Reset Extruder
G1 Z2.0 F3000 ;Move Z Axis up
G1 X10.1 Y20 Z0.28 F5000.0 ;Move to start position
G1 X10.1 Y200.0 Z0.28 F1500.0 E15 ;Draw the first line
G1 X10.4 Y200.0 Z0.28 F5000.0 ;Move to side a little
G1 X10.4 Y20 Z0.28 F1500.0 E30 ;Draw the second line
G92 E0 ;Reset Extruder
G1 Z2.0 F3000 ;Move Z Axis up
M141 S28
G92 E0
G92 E0
G1 F2700 E-1
;LAYER_COUNT:386
G1 P1-5
M107
M204 S500
M205 X8 Y8
G0 F10500 X155.644 Y181.15 Z0.384
;TYPE:SUPPORT-INTERFACE
G1 F2700 E0
G1 F1575 X155.778 Y181.039 E0.04445
G1 X156.448 Y180.519 E0.26109
G1 X156.601 Y180.41 E0.30907
G1 X157.336 Y179.922 E0.53443
G1 X157.443 Y179.858 E0.56628
G1 X158.235 Y179.411 E0.79859
G1 X158.359 Y179.347 E0.83423
G1 X159.164 Y178.968 E1.06151
G1 X159.301 Y178.91 E1.09951
G1 X160.246 Y178.552 E1.35764
G1 X161.246 Y178.255 E1.62411
G1 X162.274 Y178.029 E1.89297
G1 X163.155 Y177.898 E2.12048
G1 X163.296 Y177.883 E2.1567
G1 X164.312 Y177.81 E2.4169
G1 X164.859 Y177.8 E2.55664
G1 X235.158 Y177.8 E20.51367
G1 X235.196 Y177.801 E20.52338
G1 X236.162 Y177.835 E20.77028
G1 X236.306 Y177.846 E20.80717
G1 X237.177 Y177.942 E21.03101
G1 X237.34 Y177.966 E21.07309
G1 X238.35 Y178.157 E21.33566
G1 X239.211 Y178.382 E21.56297
G1 X239.381 Y178.433 E21.60831
G1 X240.184 Y178.707 E21.82504
G1 X240.34 Y178.767 E21.86773
G1 X241.156 Y179.113 E22.09414
G1 X241.311 Y179.185 E22.13779
G1 X242.072 Y179.577 E22.35645
G1 X242.214 Y179.657 E22.39809
G1 X242.953 Y180.107 E22.6191
G1 X243.096 Y180.202 E22.66295
G1 X243.927 Y180.802 E22.92477
G1 X244.707 Y181.455 E23.18461
G1 X245.458 Y182.185 E23.45214
G1 X246.147 Y182.959 E23.71684
G1 X246.699 Y183.674 E23.94757
G1 X246.785 Y183.795 E23.98549
G1 X247.284 Y184.547 E24.21602
G1 X247.343 Y184.645 E24.24524
G1 X247.861 Y185.577 E24.51761
G1 X248.235 Y186.373 E24.74226
G1 X248.295 Y186.517 E24.78211
G1 X248.605 Y187.326 E25.00341
G1 X248.666 Y187.504 E25.05148
G1 X248.947 Y188.455 E25.30478
G1 X249.152 Y189.372 E25.5448
G1 X249.174 Y189.494 E25.57646
G1 X249.303 Y190.365 E25.80138
G1 X249.317 Y190.498 E25.83554
G1 X249.392 Y191.548 E26.10443
G1 X249.4 Y192.052 E26.23319
G1 X249.401 Y196.474 E27.36273
G1 X249.366 Y197.443 E27.61041
G1 X249.352 Y197.627 E27.65755
G1 X249.26 Y198.472 E27.87467
G1 X249.236 Y198.64 E27.91802
G1 X249.178 Y198.95 E27.99858
G1 X249.093 Y199.654 E28.17972
G1 X249.096 Y200.123 E28.29952
G1 X249.047 Y200.133 E28.31229
G1 X249.303 Y201.865 E28.75952
G1 X249.317 Y201.998 E28.79368
G1 X249.392 Y203.048 E29.06257
G1 X249.4 Y203.556 E29.19235
G1 X249.401 Y207.996 E30.32649
G1 X249.366 Y208.942 E30.5683
G1 X249.352 Y209.126 E30.61544
G1 X249.26 Y209.97 E30.83231
G1 X249.237 Y210.133 E30.87436
G1 X249.076 Y211.002 E31.10011
G1 X249.038 Y211.174 E31.1451
G1 X248.82 Y212.013 E31.36653
G1 X248.781 Y212.143 E31.4012
G1 X248.493 Y212.989 E31.62948
G1 X248.435 Y213.14 E31.6708
G1 X248.096 Y213.939 E31.8925
G1 X248.017 Y214.108 E31.94016
G1 X247.626 Y214.868 E32.15847
G1 X247.546 Y215.01 E32.20011
G1 X247.098 Y215.747 E32.42042
G1 X247.001 Y215.893 E32.46519
G1 X246.504 Y216.589 E32.68365
G1 X246.39 Y216.736 E32.73117
G1 X245.743 Y217.51 E32.98885
G1 X245.017 Y218.256 E33.25475
G1 X244.355 Y218.851 E33.48212
G1 X244.221 Y218.963 E33.52673
G1 X243.535 Y219.494 E33.74832
G1 X243.411 Y219.582 E33.78716
G1 X242.658 Y220.082 E34.01805
G1 X242.56 Y220.141 E34.04727
G1 X241.636 Y220.655 E34.31735
G1 X240.836 Y221.03 E34.54304
G1 X240.695 Y221.09 E34.58218
G1 X239.864 Y221.409 E34.80955
G1 X239.711 Y221.462 E34.85091
G1 X238.886 Y221.71 E35.07097
G1 X238.744 Y221.747 E35.10845
G1 X237.72 Y221.972 E35.37626
G1 X236.839 Y222.103 E35.60377
G1 X236.699 Y222.118 E35.63974
G1 X235.649 Y222.192 E35.90861
G1 X235.136 Y222.2 E36.03967
G1 X164.842 Y222.2 E53.99542
G1 X164.804 Y222.199 E54.00513
G1 X163.838 Y222.165 E54.25203
G1 X163.694 Y222.154 E54.28892
G1 X162.823 Y222.058 E54.51275
G1 X162.66 Y222.034 E54.55484
G1 X161.65 Y221.843 E54.81741
G1 X160.789 Y221.618 E55.04472
G1 X160.619 Y221.567 E55.09006
G1 X159.811 Y221.291 E55.30816
G1 X159.659 Y221.233 E55.34972
G1 X158.844 Y220.887 E55.57588
G1 X158.689 Y220.815 E55.61954
G1 X157.926 Y220.422 E55.83877
G1 X157.786 Y220.343 E55.87984
G1 X157.047 Y219.893 E56.10085
G1 X156.904 Y219.798 E56.1447
G1 X156.073 Y219.198 E56.40652
G1 X155.288 Y218.54 E56.66816
G1 X154.538 Y217.811 E56.93533
G1 X153.93 Y217.134 E57.16776
G1 X153.848 Y217.034 E57.2008
G1 X153.301 Y216.326 E57.42933
G1 X153.215 Y216.205 E57.46725
G1 X152.716 Y215.453 E57.69779
G1 X152.657 Y215.355 E57.72701
G1 X152.139 Y214.423 E57.99937
G1 X151.765 Y213.627 E58.22403
G1 X151.705 Y213.483 E58.26387
G1 X151.392 Y212.666 E58.48736
G1 X151.334 Y212.496 E58.53324
G1 X151.089 Y211.681 E58.75063
G1 X151.052 Y211.539 E58.78811
G1 X150.848 Y210.628 E59.02658
G1 X150.826 Y210.506 E59.05824
G1 X150.697 Y209.635 E59.28315
G1 X150.683 Y209.502 E59.31732
G1 X150.608 Y208.443 E59.5885
G1 X150.6 Y207.936 E59.71803
G1 X150.602 Y203.493 E60.85294
G1 X150.636 Y202.558 E61.09193
G1 X150.652 Y202.353 E61.14445
G1 X150.746 Y201.509 E61.36137
G1 X150.768 Y201.359 E61.4001
G1 X150.825 Y201.044 E61.48187
G1 X150.909 Y200.341 E61.66272
G1 X150.907 Y200.032 E61.74165
G1 X150.979 Y200.032 E61.76004
G1 X150.706 Y198.178 E62.23873
G1 X150.685 Y197.973 E62.29137
G1 X150.602 Y196.409 E62.69144
G1 X150.6 Y192.016 E63.81358
G1 X150.635 Y191.022 E64.06764
G1 X150.645 Y190.888 E64.10196
G1 X150.758 Y189.893 E64.35776
G1 X150.921 Y189.006 E64.58812
G1 X150.959 Y188.837 E64.63237
G1 X151.222 Y187.849 E64.89353
G1 X151.502 Y187.025 E65.11583
G1 X151.563 Y186.864 E65.15981
G1 X151.902 Y186.066 E65.38128
G1 X151.974 Y185.912 E65.42471
G1 X152.38 Y185.122 E65.65159
G1 X152.46 Y184.978 E65.69367
G1 X152.992 Y184.115 E65.95263
G1 X153.499 Y183.405 E66.17549
G1 X153.612 Y183.259 E66.22265
G1 X154.168 Y182.591 E66.44465
G1 X154.278 Y182.468 E66.4868
G1 X154.853 Y181.871 E66.69853
G1 X155.013 Y181.716 E66.75543
G1 X155.644 Y181.15 E66.97195
G0 F10500 X156.8 Y180.277
G1 F1575 X156.8 Y219.722 E77.0477
G1 F2700 E76.0477
G1 F600 Z0.584
G0 F10500 X160 Y221.355 Z0.584
G1 F600 Z0.384
G1 F2700 E77.0477
G1 F1575 X160 Y178.645 E87.95745
G1 F2700 E86.95745
G1 F600 Z0.584
G0 F10500 X163.2 Y177.893 Z0.584
G1 F600 Z0.384
G1 F2700 E87.95745
G1 F1575 X163.2 Y222.099 E99.24933
G1 F2700 E98.24933
G1 F600 Z0.584
G0 F10500 X166.4 Y222.2 Z0.584
G1 F600 Z0.384
G1 F2700 E99.24933
G1 F1575 X166.4 Y177.8 E110.59077
G1 F2700 E109.59077
G1 F600 Z0.584
G0 F10500 X169.6 Y177.8 Z0.584
G1 F600 Z0.384
G1 F2700 E110.59077
G1 F1575 X169.6 Y222.2 E121.93221
G1 F2700 E120.93221
G1 F600 Z0.584
G0 F10500 X172.8 Y222.2 Z0.584
G1 F600 Z0.384
G1 F2700 E121.93221
G1 F1575 X172.8 Y177.8 E133.27365
G1 F2700 E132.27365
G1 F600 Z0.584
G0 F10500 X176 Y177.8 Z0.584
G1 F600 Z0.384
G1 F2700 E133.27365
G1 F1575 X176 Y222.2 E144.61509
G1 F2700 E143.61509
G1 F600 Z0.584
G0 F10500 X179.2 Y222.2 Z0.584
G1 F600 Z0.384
G1 F2700 E144.61509
G1 F1575 X179.2 Y177.8 E155.95653
G1 F2700 E154.95653
G1 F600 Z0.584
G0 F10500 X182.4 Y177.8 Z0.584
G1 F600 Z0.384
G1 F2700 E155.95653
G1 F1575 X182.4 Y222.2 E167.29797
G1 F2700 E166.29797
G1 F600 Z0.584
G0 F10500 X185.6 Y222.2 Z0.584
G1 F600 Z0.384
G1 F2700 E167.29797
G1 F1575 X185.6 Y177.8 E178.63941
G1 F2700 E177.63941
G1 F600 Z0.584
G0 F10500 X188.8 Y177.8 Z0.584
G1 F600 Z0.384
G1 F2700 E178.63941
G1 F1575 X188.8 Y222.2 E189.98085
G1 F2700 E188.98085
G1 F600 Z0.584
G0 F10500 X192 Y222.2 Z0.584
G1 F600 Z0.384
G1 F2700 E189.98085
G1 F1575 X192 Y177.8 E201.32229
G1 F2700 E200.32229
G1 F600 Z0.584
G0 F10500 X195.2 Y177.8 Z0.584
G1 F600 Z0.384
G1 F2700 E201.32229
G1 F1575 X195.2 Y222.2 E212.66373
G1 F2700 E211.66373
G1 F600 Z0.584
G0 F10500 X198.4 Y222.2 Z0.584
G1 F600 Z0.384
G1 F2700 E212.66373
G1 F1575 X198.4 Y177.8 E224.00517
G1 F2700 E223.00517
G1 F600 Z0.584
G0 F10500 X201.6 Y177.8 Z0.584
G1 F600 Z0.384
G1 F2700 E224.00517
G1 F1575 X201.6 Y222.2 E235.34661
G1 F2700 E234.34661
G1 F600 Z0.584
G0 F10500 X204.8 Y222.2 Z0.584
G1 F600 Z0.384
G1 F2700 E235.34661
G1 F1575 X204.8 Y177.8 E246.68805
G1 F2700 E245.68805
G1 F600 Z0.584
G0 F10500 X208 Y177.8 Z0.584
G1 F600 Z0.384
G1 F2700 E246.68805
G1 F1575 X208 Y222.2 E258.02949
G1 F2700 E257.02949
G1 F600 Z0.584
G0 F10500 X211.2 Y222.2 Z0.584
G1 F600 Z0.384
G1 F2700 E258.02949
G1 F1575 X211.2 Y177.8 E269.37093
G1 F2700 E268.37093
G1 F600 Z0.584
G0 F10500 X214.4 Y177.8 Z0.584
G1 F600 Z0.384
G1 F2700 E269.37093
G1 F1575 X214.4 Y222.2 E280.71237
G1 F2700 E279.71237
G1 F600 Z0.584
G0 F10500 X217.6 Y222.2 Z0.584
G1 F600 Z0.384
G1 F2700 E280.71237
G1 F1575 X217.6 Y177.8 E292.05381
G1 F2700 E291.05381
G1 F600 Z0.584
G0 F10500 X220.8 Y177.8 Z0.584
G1 F600 Z0.384
G1 F2700 E292.05381
G1 F1575 X220.8 Y222.2 E303.39525
G1 F2700 E302.39525
G1 F600 Z0.584
G0 F10500 X224 Y222.2 Z0.584
G1 F600 Z0.384
G1 F2700 E303.39525
G1 F1575 X224 Y177.8 E314.73669
G1 F2700 E313.73669
G1 F600 Z0.584
G0 F10500 X227.2 Y177.8 Z0.584
G1 F600 Z0.384
G1 F2700 E314.73669
G1 F1575 X227.2 Y222.2 E326.07813
G1 F2700 E325.07813
G1 F600 Z0.584
G0 F10500 X230.4 Y222.2 Z0.584
G1 F600 Z0.384
G1 F2700 E326.07813
G1 F1575 X230.4 Y177.8 E337.41957
G1 F2700 E336.41957
G1 F600 Z0.584
G0 F10500 X233.6 Y177.8 Z0.584
G1 F600 Z0.384
G1 F2700 E337.41957
G1 F1575 X233.6 Y222.2 E348.76101
G1 F2700 E347.76101
G1 F600 Z0.584
G0 F10500 X236.8 Y222.108 Z0.584
G1 F600 Z0.384
G1 F2700 E348.76101
G1 F1575 X236.8 Y177.901 E360.05315
G1 F2700 E359.05315
G1 F600 Z0.584
G0 F10500 X240 Y178.645 Z0.584
G1 F600 Z0.384
G1 F2700 E360.05315
G1 F1575 X240 Y221.357 E370.96341
G1 F2700 E369.96341
G1 F600 Z0.584
G0 F10500 X243.2 Y219.723 Z0.584
G1 F600 Z0.384
G1 F2700 E370.96341
G1 F1575 X243.2 Y180.278 E381.03916
G1 F2700 E380.03916
G1 F600 Z0.584
G0 F10500 X246.4 Y183.287 Z0.584
G1 F600 Z0.384
G1 F2700 E381.03916
G1 F1575 X246.4 Y216.724 E389.58023
G1 F2700 E388.58023
G1 F600 Z0.584
G0 F10500 X153.6 Y216.713 Z0.584
G1 F600 Z0.384
G1 F2700 E389.58023
G1 F1575 X153.6 Y183.274 E398.12182
G0 F600 X153.6 Y183.274 Z0.864
G0 F10500 X154.167 Y182.59
;TIME_ELAPSED:74.727159
G1 P1-4
;TYPE:SUPPORT
G1 F1575 X153.611 Y183.258 E398.39933
G1 X153.499 Y183.404 E398.45808
G1 X153.231 Y183.778 E398.60499
G1 X191.652 Y222.199 E415.95417
G1 X189.107 Y222.199 E416.76678
G1 X152.259 Y185.352 E433.40544
G1 X151.974 Y185.911 E433.60578
G1 X151.902 Y186.065 E433.66006
G1 X151.563 Y186.863 E433.9369
G1 X151.501 Y187.024 E433.99199
G1 X151.472 Y187.11 E434.02097
G1 X186.561 Y222.199 E449.86557
G1 X184.016 Y222.199 E450.67818
G1 X150.905 Y189.088 E465.6296
G1 X150.757 Y189.892 E465.89063
G1 X150.644 Y190.887 E466.21037
G1 X150.634 Y191.02 E466.25296
G1 X150.622 Y191.352 E466.35903
G1 X181.47 Y222.199 E480.28836
G1 X178.924 Y222.199 E481.10129
G1 X150.6 Y193.875 E493.89113
G1 X150.601 Y196.408 E494.69991
G1 X150.602 Y196.422 E494.70439
G1 X176.379 Y222.199 E506.34411
G1 X173.833 Y222.199 E507.15704
G1 X150.86 Y199.226 E517.5306
G1 X150.979 Y200.031 E517.79043
G1 X150.907 Y200.031 E517.81342
G1 X150.909 Y200.34 E517.91209
G1 X150.824 Y201.043 E518.13819
G1 X150.767 Y201.358 E518.2404
G1 X150.745 Y201.507 E518.28849
G1 X150.73 Y201.642 E518.33186
G1 X171.288 Y222.199 E527.61469
G1 X168.742 Y222.199 E528.42762
G1 X150.601 Y204.058 E536.61928
G1 X150.6 Y206.603 E537.43189
G1 X166.196 Y222.199 E544.47433
G1 X164.842 Y222.199 E544.90666
G1 X164.803 Y222.198 E544.91912
G1 X163.838 Y222.164 E545.22743
G1 X163.693 Y222.153 E545.27386
G1 X163.593 Y222.141 E545.30602
G1 X150.661 Y209.21 E551.1453
G1 X150.683 Y209.501 E551.23848
G1 X150.697 Y209.634 E551.28118
G1 X150.825 Y210.505 E551.56228
G1 X150.848 Y210.627 E551.60192
G1 X151.052 Y211.538 E551.9
G1 X151.088 Y211.68 E551.94677
G1 X151.303 Y212.397 E552.18578
G1 X160.395 Y221.489 E556.29132
G1 X159.811 Y221.289 E556.48842
G1 X159.659 Y221.232 E556.54025
G1 X158.843 Y220.886 E556.82325
G1 X158.688 Y220.813 E556.87796
G1 X157.925 Y220.421 E557.15185
G1 X157.785 Y220.342 E557.20318
G1 X157.047 Y219.891 E557.47934
G1 X156.904 Y219.797 E557.53398
G1 X156.072 Y219.197 E557.86151
G1 X155.288 Y218.539 E558.18832
G1 X154.538 Y217.81 E558.52228
G1 X153.93 Y217.132 E558.81306
G1 X153.848 Y217.033 E558.8541
G1 X153.3 Y216.325 E559.13997
G1 X153.215 Y216.204 E559.18719
G1 X152.715 Y215.451 E559.47579
G1 X152.656 Y215.354 E559.51204
G1 X152.138 Y214.422 E559.8525
G1 X151.764 Y213.626 E560.13332
G1 X151.704 Y213.481 E560.18343
G1 X151.391 Y212.665 E560.46248
G1 X151.333 Y212.495 E560.51984
G1 F2700 E559.51984
G1 F600 Z1.064
G0 F10500 X154.167 Y182.59 Z1.064
G1 F600 Z0.864
G1 F2700 E560.51984
G1 F1575 X154.277 Y182.467 E560.57252
G1 X154.369 Y182.371 E560.61498
G1 X194.198 Y222.199 E578.59972
G1 X196.743 Y222.199 E579.41233
G1 X155.671 Y181.127 E597.95858
G1 X155.777 Y181.038 E598.00277
G1 X156.448 Y180.517 E598.27402
G1 X156.6 Y180.409 E598.33356
G1 X157.141 Y180.051 E598.5407
G1 X199.289 Y222.199 E617.57282
G1 X201.835 Y222.199 E618.38575
G1 X158.782 Y179.147 E637.8263
G1 X159.164 Y178.967 E637.96114
G1 X159.301 Y178.909 E638.00864
G1 X160.245 Y178.551 E638.331
G1 X160.621 Y178.44 E638.45618
G1 X204.38 Y222.199 E658.21576
G1 X206.926 Y222.199 E659.02869
G1 X162.692 Y177.966 E679.00253
G1 X163.154 Y177.896 E679.15173
G1 X163.295 Y177.881 E679.197
G1 X164.311 Y177.809 E679.52222
G1 X164.859 Y177.799 E679.69723
G1 X165.071 Y177.799 E679.76492
G1 X209.471 Y222.199 E699.81394
G1 X212.017 Y222.199 E700.62687
G1 X167.617 Y177.799 E720.67589
G1 X170.163 Y177.799 E721.48882
G1 X214.563 Y222.199 E741.53785
G1 X217.108 Y222.199 E742.35046
G1 X172.708 Y177.799 E762.39948
G1 X175.254 Y177.799 E763.21241
G1 X219.654 Y222.199 E783.26143
G1 X222.199 Y222.199 E784.07405
G1 X177.799 Y177.799 E804.12307
G1 X180.345 Y177.799 E804.936
G1 X224.745 Y222.199 E824.98502
G1 X227.29 Y222.199 E825.79763
G1 X182.891 Y177.799 E845.84643
G1 X185.436 Y177.799 E846.65904
G1 X229.836 Y222.199 E866.70807
G1 X232.382 Y222.199 E867.521
G1 X187.982 Y177.799 E887.57002
G1 X190.527 Y177.799 E888.38263
G1 X234.927 Y222.199 E908.43165
G1 X235.135 Y222.199 E908.49807
G1 X235.648 Y222.192 E908.66188
G1 X236.698 Y222.117 E908.998
G1 X236.838 Y222.103 E909.04292
G1 X237.307 Y222.033 E909.19433
G1 X193.073 Y177.799 E929.1684
G1 X195.618 Y177.799 E929.98101
G1 X239.379 Y221.56 E949.74149
G1 X239.709 Y221.462 E949.8514
G1 X239.863 Y221.409 E949.90341
G1 X240.694 Y221.09 E950.18762
G1 X240.834 Y221.03 E950.23625
G1 X241.216 Y220.851 E950.37095
G1 X198.164 Y177.799 E969.81128
G1 X200.71 Y177.799 E970.62421
G1 X242.857 Y219.947 E989.65611
G1 X243.41 Y219.582 E989.86767
G1 X243.533 Y219.493 E989.91615
G1 X244.22 Y218.962 E990.19339
G1 X244.328 Y218.872 E990.23828
G1 X203.255 Y177.799 E1008.78498
G1 X205.801 Y177.799 E1009.59791
G1 X245.629 Y217.627 E1027.58243
G1 X245.742 Y217.51 E1027.63436
G1 X246.389 Y216.736 E1027.95647
G1 X246.503 Y216.588 E1028.01612
G1 X246.767 Y216.22 E1028.16073
G1 X208.346 Y177.799 E1045.50991
G1 X210.892 Y177.799 E1046.32284
G1 X247.739 Y214.647 E1062.9615
G1 X248.016 Y214.107 E1063.15528
G1 X248.095 Y213.939 E1063.21456
G1 X248.434 Y213.139 E1063.49198
G1 X248.492 Y212.989 E1063.54333
G1 X248.527 Y212.889 E1063.57716
G1 X213.438 Y177.799 E1079.42199
G1 X215.983 Y177.799 E1080.2346
G1 X249.093 Y210.909 E1095.18557
G1 X249.236 Y210.133 E1095.43752
G1 X249.259 Y209.969 E1095.49039
G1 X249.351 Y209.125 E1095.76148
G1 X249.365 Y208.941 E1095.8204
G1 X249.376 Y208.647 E1095.91434
G1 X218.529 Y177.799 E1109.84366
G1 X221.074 Y177.799 E1110.65628
G1 X249.4 Y206.125 E1123.44701
G1 X249.4 Y203.579 E1124.25994
G1 X223.62 Y177.799 E1135.90102
G1 X226.165 Y177.799 E1136.71363
